svg/notifications.svg

<?xml version="1.0" encoding="UTF-8" standalone="no"?>
<svg
   width="25"
   height="25"
   viewBox="0 0 25 25"
   fill="none"
   version="1.1"
   id="svg2"
   sodipodi:docname="notifications.svg"
   inkscape:version="1.4 (86a8ad7, 2024-10-11)"
   xmlns:inkscape="http://www.inkscape.org/namespaces/inkscape"
   xmlns:sodipodi="http://sodipodi.sourceforge.net/DTD/sodipodi-0.dtd"
   xmlns="http://www.w3.org/2000/svg"
   xmlns:svg="http://www.w3.org/2000/svg">
  <defs
     id="defs2" />
  <sodipodi:namedview
     id="namedview2"
     pagecolor="#ffffff"
     bordercolor="#000000"
     borderopacity="0.25"
     inkscape:showpageshadow="2"
     inkscape:pageopacity="0.0"
     inkscape:pagecheckerboard="0"
     inkscape:deskcolor="#d1d1d1"
     inkscape:zoom="31.32"
     inkscape:cx="12.5"
     inkscape:cy="12.5"
     inkscape:window-width="1920"
     inkscape:window-height="1001"
     inkscape:window-x="-9"
     inkscape:window-y="-9"
     inkscape:window-maximized="1"
     inkscape:current-layer="svg2" />
  <g
     id="g2"
     transform="translate(0.27110805,0.1433)">
    <path
       d="m 8.58069,20.5985 c 0.84109,1.0692 2.16241,1.7582 3.64821,1.7582 1.4858,0 2.8071,-0.689 3.6482,-1.7582 -2.4218,0.3282 -4.8746,0.3282 -7.29641,0 z"
       fill="#2d2d2d"
       id="path1" />
    <path
       d="m 18.978,9.3567 v 0.7041 c 0,0.845 0.2412,1.6711 0.6931,2.3741 l 1.1074,1.723 c 1.0116,1.5737 0.2394,3.7127 -1.52,4.2104 -4.6023,1.3018 -9.45688,1.3018 -14.05926,0 -1.75931,-0.4977 -2.53154,-2.6367 -1.52,-4.2104 l 1.10744,-1.723 C 5.2386,11.7319 5.47975,10.9058 5.47975,10.0608 V 9.3567 c 0,-3.86599 3.02169,-7 6.74915,-7 3.7274,0 6.7491,3.13401 6.7491,7 z"
       fill="#2d2d2d"
       id="path2" />
  </g>
</svg>

<svg width="25" height="25" viewBox="0 0 25 25" fill="none" xmlns="http://www.w3.org/2000/svg">
<path d="M8.58069 20.5985C9.42178 21.6677 10.7431 22.3567 12.2289 22.3567C13.7147 22.3567 15.036 21.6677 15.8771 20.5985C13.4553 20.9267 11.0025 20.9267 8.58069 20.5985Z" fill="#2D2D2D"/>
<path d="M18.978 9.3567V10.0608C18.978 10.9058 19.2192 11.7319 19.6711 12.4349L20.7785 14.1579C21.7901 15.7316 21.0179 17.8706 19.2585 18.3683C14.6562 19.6701 9.80162 19.6701 5.19924 18.3683C3.43993 17.8706 2.6677 15.7316 3.67924 14.1579L4.78668 12.4349C5.2386 11.7319 5.47975 10.9058 5.47975 10.0608V9.3567C5.47975 5.49071 8.50144 2.3567 12.2289 2.3567C15.9563 2.3567 18.978 5.49071 18.978 9.3567Z" fill="#2D2D2D"/>
</svg>
